X: 1
T: the New Fiddle
C: Dan R. MacDonald (Cape Breton)
S: Jerry Holland's Second Collection of Fiddle Tunes
S: BSFC Tune Book p.61 #2
O: 2000
R: jig
Z: 2014 John Chambers <jc:trillian.mit.edu>
M: 6/8
L: 1/8
K: E
a |\
"E"Tg2e ede | BGE EGB | "D"=dcB AFD | A,=DF A=df |\
"E"Tg2e ede | BGE EGB | "D"=dcB AGF | "E"TE3 E2 :|
a |\
"E"gbe bge | Bba gfe | "D"=dcB AFD | A,=DF A=df |\
"E"gbe bge | Bba gfe | "D"=dcB AGF | "E"TE3 E2 |]
a |\
"E"gbe bge | Bba gfe | "D"=dcB AFD | A,=DF A=df |\
"E"gbg "B7"faf | "E"eba gfe | "D"=dcB AGF | "E"TE3 E2 |]
